austria/municipalities/50307.svg

<?xml version="1.0" encoding="UTF-8" standalone="no"?>
<svg
   xmlns:dc="http://purl.org/dc/elements/1.1/"
   xmlns:cc="http://creativecommons.org/ns#"
   xmlns:rdf="http://www.w3.org/1999/02/22-rdf-syntax-ns#"
   xmlns:svg="http://www.w3.org/2000/svg"
   xmlns="http://www.w3.org/2000/svg"
   xmlns:sodipodi="http://sodipodi.sourceforge.net/DTD/sodipodi-0.dtd"
   xmlns:inkscape="http://www.inkscape.org/namespaces/inkscape"
   width="389.21808"
   height="471.98889"
   id="svg2"
   sodipodi:version="0.32"
   inkscape:version="1.0.1 (3bc2e813f5, 2020-09-07)"
   version="1.0"
   sodipodi:docname="AUT_Ebenau_COA.svg"
   inkscape:output_extension="org.inkscape.output.svg.inkscape"
   style="display:inline">
  <sodipodi:namedview
     pagecolor="#ffffff"
     bordercolor="#666666"
     borderopacity="1"
     objecttolerance="10"
     gridtolerance="10"
     guidetolerance="10"
     inkscape:pageopacity="0"
     inkscape:pageshadow="2"
     inkscape:window-width="1920"
     inkscape:window-height="1001"
     id="namedview14"
     showgrid="false"
     inkscape:zoom="1.2704251"
     inkscape:cx="172.03078"
     inkscape:cy="238.46375"
     inkscape:window-x="-9"
     inkscape:window-y="-9"
     inkscape:window-maximized="1"
     inkscape:current-layer="svg2" />
  <defs
     id="defs4" />
  <metadata
     id="metadata7">
    <rdf:RDF>
      <cc:Work
         rdf:about="">
        <dc:format>image/svg+xml</dc:format>
        <dc:type
           rdf:resource="http://purl.org/dc/dcmitype/StillImage" />
        <dc:title></dc:title>
      </cc:Work>
    </rdf:RDF>
  </metadata>
  <path
     id="path3148-1"
     d="m 194.51809,469.30951 c 26.98445,-3.67479 82.01055,-13.24114 105.30444,-27.45083 37.41364,-22.82298 67.71553,-64.97606 81.65824,-113.59511 7.37782,-25.72689 6.90115,-14.07123 7.34145,-179.51357 L 389.21809,0 h -194.7 v 6.3215 z"
     style="display:inline;fill:#ffffff;fill-opacity:1;stroke:none;stroke-opacity:1"
     sodipodi:nodetypes="cssccccc">
    <path
       sodipodi:nodetypes="csscccccsssccc"
       style="fill:#ffffff;fill-opacity:1;stroke:none;stroke-opacity:1;display:inline"
       d="M 383.19225,655.88218 C 356.2078,652.20739 326.11184,641.50199 302.81795,627.2923 C 265.40431,604.46932 235.10242,562.31624 221.15971,513.69719 C 213.78189,487.9703 214.25856,499.62596 213.81826,334.18362 L 213.42239,185.43362 L 408.03141,185.43362 L 602.64048,185.43362 L 602.32308,332.68362 C 602.00738,479.13811 601.99378,479.99845 599.81778,491.93362 C 593.32908,527.52347 581.66024,554.78205 561.7188,580.93362 C 554.09035,590.93771 535.65443,609.21154 525.32421,617.00824 C 484.42605,647.87598 431.2334,662.42449 383.19225,655.88218 z M 534.63027,601.38702 L 534.63027,601.38702 z"
       id="path3170-8"
       transform="translate(-213.42239,-185.43362)" />
  </path>
  <path
     id="path3148"
     d="M 408.12239,654.74313 C 381.13794,651.06834 326.11184,641.50199 302.81795,627.2923 C 265.40431,604.46932 235.10242,562.31624 221.15971,513.69719 C 213.78189,487.9703 214.25856,499.62596 213.81826,334.18362 L 213.42239,185.43362 L 408.12239,185.43362 L 408.12239,191.75512 L 408.12239,654.74313 z"
     style="fill:#ff0000;fill-opacity:1;stroke:none;stroke-opacity:1;display:inline"
     sodipodi:nodetypes="cssccccc"
     transform="translate(-213.42239,-185.43362)">
    <path
       sodipodi:nodetypes="csscccccsssccc"
       style="fill:#ff0000;fill-opacity:1;stroke:none;stroke-opacity:1;display:inline"
       d="M 383.19225,655.88218 C 356.2078,652.20739 326.11184,641.50199 302.81795,627.2923 C 265.40431,604.46932 235.10242,562.31624 221.15971,513.69719 C 213.78189,487.9703 214.25856,499.62596 213.81826,334.18362 L 213.42239,185.43362 L 408.03141,185.43362 L 602.64048,185.43362 L 602.32308,332.68362 C 602.00738,479.13811 601.99378,479.99845 599.81778,491.93362 C 593.32908,527.52347 581.66024,554.78205 561.7188,580.93362 C 554.09035,590.93771 535.65443,609.21154 525.32421,617.00824 C 484.42605,647.87598 431.2334,662.42449 383.19225,655.88218 z M 534.63027,601.38702 L 534.63027,601.38702 z"
       id="path3170"
       transform="translate(-213.42239,-185.43362)" />
  </path>
  <path
     style="display:inline;fill:#ffffff;fill-opacity:1;fill-rule:evenodd;stroke:#000000;stroke-width:2;stroke-linecap:butt;stroke-linejoin:miter;stroke-miterlimit:4;stroke-dasharray:none;stroke-opacity:1"
     d="m 53.750194,4.9888916 c 11.20178,6.1626514 20.9933,21.2123484 21.13258,35.0000004 V 191.98406 l -41,0.005 c -15.55309,-5.87965 -24.6471101,-12.99535 -30.0000001,-26 v 108 c 6.5722301,-11.0863 16.6152701,-28.2262 31.0000001,-28 h 40 v 164 c -0.61968,5.33916 -5.9453,7.75 -12.27927,7.45176 27.35582,22.75949 50.336636,33.71541 77.781736,41.92133 -5.68656,-4.18174 -11.68249,-12.51122 -12.12183,-20.70812 l -1.01015,-190.41376 39.39595,-0.50507 c 13.42301,1.0863 22.81055,13.67225 26.23356,25.25855 l -0.004,-106.00469 c -4.16794,14.49958 -13.32815,22.49559 -22.99609,24.99517 l -43,0.005 1.25437,-153.986786 C 130.55825,24.598336 140.26658,9.642659 153.75019,4.9888916 Z"
     id="path3933"
     sodipodi:nodetypes="ccccccccccccccccccccc" />
  <path
     transform="translate(-213.42239,-185.43362)"
     id="path3168"
     d="M 383.19225,655.88218 C 356.2078,652.20739 326.11184,641.50199 302.81795,627.2923 C 265.40431,604.46932 235.10242,562.31624 221.15971,513.69719 C 213.78189,487.9703 214.25856,499.62596 213.81826,334.18362 L 213.42239,185.43362 L 408.03141,185.43362 L 602.64048,185.43362 L 602.32308,332.68362 C 602.00738,479.13811 601.99378,479.99845 599.81778,491.93362 C 593.32908,527.52347 581.66024,554.78205 561.7188,580.93362 C 554.09035,590.93771 535.65443,609.21154 525.32421,617.00824 C 484.42605,647.87598 431.2334,662.42449 383.19225,655.88218 z M 531.07116,604.20588 L 534.63027,601.38702 C 540.36244,596.84706 552.14763,584.01641 558.68904,575.19401 C 575.69366,552.25987 587.95768,523.92101 592.58068,496.87972 C 595.97048,477.05116 596.55198,451.17055 596.56188,319.68362 L 596.57138,192.43362 L 407.57143,192.43362 L 218.57143,192.43362 L 218.59203,326.18362 C 218.60342,400.17694 219.04044,466.53798 219.57018,474.71579 C 221.9905,512.07937 236.39763,549.93333 259.41836,579.4147 C 265.94511,587.77315 282.25372,604.41742 283.92735,604.42814 C 354.52291,663.99691 459.40418,665.3514 531.07116,604.20588 z"
     style="fill:#000000;fill-opacity:1;stroke:none;stroke-opacity:1;display:inline"
     sodipodi:nodetypes="csscccccssscccsscccccsscc" />
  <path
     style="fill:none;fill-rule:evenodd;stroke:#000000;stroke-width:4.5;stroke-linecap:butt;stroke-linejoin:miter;stroke-miterlimit:4;stroke-dasharray:none;stroke-opacity:1;display:inline"
     d="M 195,4.885517 L 194.91071,466.54246"
     id="path3923"
     sodipodi:nodetypes="cc" />
  <path
     id="path852"
     style="fill:#ff0000;fill-opacity:1;stroke:#000000;stroke-width:2;stroke-linecap:butt;stroke-linejoin:miter;stroke-miterlimit:4;stroke-dasharray:none;stroke-opacity:1"
     d="M 301.00781,36.734375 222.25,86.828125 V 124.82812 L 271.45117,93.533203 V 148.82812 H 222.25 v 29.55665 h 49.20117 v 31.86132 H 222.25 v 29.55664 h 49.20117 v 31.85938 h -49.20312 v 29.55664 h 49.20312 v 74.09375 38 l 78.75781,-50.09375 v -38 l -49.20117,31.29492 v -55.29492 h 49.20117 v -29.55664 h -49.20117 v -31.85938 h 49.20313 v -29.55664 h -49.20313 v -31.86132 h 49.20313 V 148.82812 H 301.00781 V 74.734375 Z" />
</svg>

<svg xmlns="http://www.w3.org/2000/svg" width="389.218" height="471.989" version="1.0" style="display:inline"><path d="M194.518 469.31c26.985-3.675 82.01-13.242 105.305-27.451 37.413-22.823 67.715-64.976 81.658-113.595 7.378-25.727 6.9-14.072 7.341-179.514L389.218 0h-194.7v6.322z" style="display:inline;fill:#fff;fill-opacity:1;stroke:none;stroke-opacity:1"/><path d="M408.122 654.743c-26.984-3.675-82.01-13.241-105.304-27.45-37.414-22.824-67.716-64.977-81.658-113.596-7.378-25.727-6.901-14.071-7.342-179.513l-.396-148.75h194.7v469.309z" style="fill:red;fill-opacity:1;stroke:none;stroke-opacity:1;display:inline" transform="translate(-213.422 -185.434)"/><path style="display:inline;fill:#fff;fill-opacity:1;fill-rule:evenodd;stroke:#000;stroke-width:2;stroke-linecap:butt;stroke-linejoin:miter;stroke-miterlimit:4;stroke-dasharray:none;stroke-opacity:1" d="M53.75 4.989c11.202 6.163 20.993 21.212 21.133 35v151.995l-41 .005c-15.553-5.88-24.647-12.995-30-26v108c6.572-11.086 16.615-28.226 31-28h40v164c-.62 5.34-5.946 7.75-12.28 7.452 27.356 22.76 50.337 33.715 77.782 41.921-5.686-4.182-11.682-12.511-12.122-20.708l-1.01-190.414 39.396-.505c13.423 1.086 22.81 13.672 26.234 25.259l-.004-106.005c-4.168 14.5-13.328 22.496-22.996 24.995l-43 .005 1.254-153.987c2.421-13.404 12.13-28.36 25.613-33.013z"/><path transform="translate(-213.422 -185.434)" d="M383.192 655.882c-26.984-3.675-57.08-14.38-80.374-28.59-37.414-22.823-67.716-64.976-81.658-113.595-7.378-25.727-6.901-14.071-7.342-179.513l-.396-148.75H602.64l-.317 147.25c-.316 146.454-.33 147.314-2.505 159.25-6.489 35.59-18.158 62.848-38.1 89-7.628 10.004-26.064 28.278-36.394 36.074-40.898 30.868-94.09 45.416-142.132 38.874zm147.88-51.676 3.558-2.819c5.732-4.54 17.518-17.37 24.059-26.193 17.005-22.934 29.269-51.273 33.892-78.314 3.39-19.829 3.971-45.71 3.98-177.196l.01-127.25h-378l.021 133.75c.011 73.993.448 140.354.978 148.532 2.42 37.363 16.828 75.217 39.848 104.699 6.527 8.358 22.836 25.002 24.51 25.013 70.595 59.569 175.476 60.923 247.143-.222z" style="fill:#000;fill-opacity:1;stroke:none;stroke-opacity:1;display:inline"/><path style="fill:none;fill-rule:evenodd;stroke:#000;stroke-width:4.5;stroke-linecap:butt;stroke-linejoin:miter;stroke-miterlimit:4;stroke-dasharray:none;stroke-opacity:1;display:inline" d="m195 4.886-.09 461.656"/><path style="fill:red;fill-opacity:1;stroke:#000;stroke-width:2;stroke-linecap:butt;stroke-linejoin:miter;stroke-miterlimit:4;stroke-dasharray:none;stroke-opacity:1" d="M301.008 36.734 222.25 86.828v38l49.201-31.295v55.295H222.25v29.557h49.201v31.861H222.25v29.557h49.201v31.86h-49.203v29.556h49.203v112.094l78.758-50.094v-38l-49.201 31.295v-55.295h49.201v-29.557h-49.201v-31.86h49.203v-29.556h-49.203v-31.861h49.203v-29.557h-49.203V74.734z"/></svg>
